X: 1
T:Lady MacKenzie of Fairburn
M:C
L:1/8
Q:80
C:
S:Strathspey
K:HP
[| d|
{gcd}c/2e3/2{ag}a2g/2f/2e{ag}a2|
{cd}c/2e3/2{ag}a3/2e/2{gcd}c3/2B/2{g}A3/2d/2|
{gcd}c/2e3/2{ag}a2g/2f/2e{gf}g2|  !
{Gdc}d3/2e/2{gf}g3/2d/2{gBd}B3/2A/2{g}G3/2d/2{gcd}c/2e3/2{ag}a2g/2f/2e{a
g}a2|
{cd}c/2e3/2{ag}a3/2e/2{gcd}c3/2B/2{g}A3/2d/2|
{gcd}c/2e3/2{ag}a3/2g/2{fg}f/2e3/2{gf}g2|  !
{Gdc}d3/2e/2{gf}g3/2d/2{gBd}B3/2A/2{g}G/2a3/2|] [|
A3/2{d}c/2{gef}e3/2A/2{g}f3/2A/2{gef}e2|
{g}A3/2{d}c/2{gef}e3/2d/2{gcd}c3/2B/2{g}A/2a3/2|  !
A3/2{d}c/2{gef}e3/2A/2{g}f3/2A/2{gef}e2|
{g}G3/2B/2{Gdc}d3/2c/2{gBd}B3/2A/2{g}G/2a3/2A3/2{d}c/2{gef}e3/2A/2{g}f3/
2A/2{gef}e2|
{g}A3/2{d}c/2{gef}e3/2d/2{gcd}c3/2B/2{g}A/2a3/2|  !
A3/2{d}c/2{g}e/2a3/2{fg}f3/2d/2{gef}e3/2c/2|
{Gdc}d3/2e/2{gf}g3/2d/2{gBd}B3/2A/2{g}G/2d3/2|]
